X:1
T:Brier Patch Rag
T:Tom Brier https://musescore.com/user/19465036/scores/5174742 Transcribed from: Album: "Rising Star", Track 10: "Brier Patch Rag"
T:Brier Patch Rag
C:Tom Brier
%%score { ( 1 3 ) | 2 }
L:1/8
Q:1/2=100
M:4/4
K:F
V:1 treble nm="Piano" snm="Pno."
V:3 treble 
V:2 bass 
V:1
"^Moderato" z [FAc] d[FAcf]- [FAcf]d [FAc]2 | z [F_A_d] _e[FAdf]- [FAdf]e [FAd]2 | %2
 z [FB_d] _e[FBdf]- [FBdf]e [FBd]2 | .[EGc]2 [FA]2 [GB]2 [^G=B]2 |: [FAc]2 dA [EAc]2 dA | %5
 [_EAc]2 d[D^Fc]- [DFc][DA][CF]D | [GB]2 cG [_GB]2 cG | [FB]2 c[EGB]- [EGB][CG][B,E]C | %8
 [DFA]2 G[_DF]- [DF]EFG | [CFA]2 G[DF]- [DF]EFG | [=B,DA]2 ^G[B,DA]- [B,DA]=G [B,F]2 | %11
 .[CEG]2 [FA]2 [GB]2 [^G=B]2 | [FAc]2 dA [EAc]2 dA | [_EAc]2 d[D^Fc]- [DFc][DA][CF]D | %14
 [GB]2 cG [_GB]2 cG | [FB]2 c[EGB]- [EGB][CG][B,E]C | [DFA]2 G[_DF]- [DF]EFG | %17
 [FA]2 c[F_Ae]- [FAe]2 d2 | [EBc]2 [DB][CA]- [CA][D_A] .[EG]2 |1 %19
"^repeat 8va" [A,CF]2 [fa]2 [gb]2 [^g=b]2 :|2 .[Acf]2 [Af]2 [Ge]2 [Fd]2 |: ^d e2 g ^c =d2 f | %22
 ^d e2 [ca]- [ca]2 [Bg]2 | e f2 a [Ad]2 [A_d]2 | [Ac]=B[Ad][Ac]- [Ac]AGF | EA=B[EAc]- [EAc]d e2 | %26
 [=Bdf]^GB[GBde]- [GBde]2 [GBd]2 | [A^c] [=Bd]2 [ce]- [ce]4 | [E^Gd] [DG=B]2 [^CEA]- [CEA]Bcd | %29
 ^d e2 g ^c =d2 f | ^d e2 [ca]- [ca]2 [Bg]2 | e f2 [_ead']- [ead']2 [eac']2 | %32
 e f2 [dfc']- [dfc']2 [dfb]2 | g b2 [^g=be']- [gbe']2 [gbd']2 | f a2 [d^fb]- [dfb]2 [cfa]2 | %35
 [GBdg]2 [Dd][EGBe]- [EGBe][Dd] [EGBe]2 |1 .[Acf]2 [Af]2 [Ge]2 [Fd]2 :|2 %37
 .[Acf]2 [fa]2 [gb]2 [^g=b]2 || [cfac']2 [dd']a [ceac']2 [dd']a | %39
 [c_eac'] [dd']2 [cd^fc']- [cdfc'][da][cf]d | [Bdgb]2 [cc']g [Bd_gb]2 [cc']g | %41
 [Bdfb] [cc']2 [Begb]- [Begb][cg][Be]c | [Adfa]2 [Gg][F_A_df]- [FAdf][Ee][Ff][Gg] | %43
 [Acfa] [Gg]2 [FAdf]- [FAdf][Ee][Ff][Gg] | [Ada]2 [^G^g][Ada]- [Ada][=G=g] [Ff]2 | %45
 .[GBeg]2 [Afa]2 [Bgb] [=B^g=b]2 a | [cfac']2 [dd']a [ceac']2 [dd']a | %47
 [c_eac'] [dd']2 [cd^fc']- [cdfc'][da][cf]d | [Bdgb]2 [cc']g [Bd_gb]2 [cc']g | %49
 [Bdfb] [cc']2 [Begb]- [Begb][cg][Be]c | [Adfa]2 [Gg][F_A_df]- [FAdf][Ee][Ff][Gg] | %51
 [Afa] [cc']2 [f_ae']- [fae']=b [dfad']2 | [cc']2 [db][ca]- [ca][_c_a] [_Bg]2 | %53
 [FAcf]4 [fac'f']4 || z [FAc] d[FAcf]- [FAcf]d [FAcf]2 | [_GB_d_g]2 d[GBdg]- [GBdg]d [GBdg]2 | %56
 [FAcf]2 [FA]2 [GB]2 [^G=B]2 | [FAc]4 [FAcf]4 |:[K:Bb] z2 [Ag]c [Af]2 [Ag]c | [Af]gc[Af] [Ag]4 | %60
 z2 [Bg]d [Bf]2 [Bg]d | [Bf]gd[Bf] [Bg]dfb | [fa]bc'[eg]- [eg]a b2 | [df]ga[ce]- [ce]fge | %64
 [^cg] [df]2 [df]- [df]!8va(!bd'f' | [^c'g'] [d'f']2 [d'f']- [d'f']4!8va)! | z2 [Ag]c [Af]2 [Ag]c | %67
 [Af]gc[Af] [Ag]4 | z2 [Bg]d [Bf]2 [Bg]d | [Bf]gd[_Adg]- [Adg]fdB | %70
 [Ee][Ff][Gg][Beb]- [Beb][Aa] [Gg]2 | [_G_g][_A_a][Bb][_dg_d']- [dgd'][cc'] [Bb]2 | %72
 [fd']bgf [_f_d'] [ec']2 [d=fb]- |1 [dfb]4 [Bdfb]4 :|2 [dfb]2 [Bb]2 [Bb]2 [Bb]2 |: %75
 [Begb]2 [cegc']2 [Begb]2 [cegc']2 | [dgbd'] [cc']2 [Begb]- [Begb]2 [GBeg]2 | %77
 [FBdf]2 [GBdg]2 [FBdf]2 [GBdg]2 | [A=Bda] [Gg]2 [FBdf]- [FBdf]2 [DFGBd]2 | %79
 [EGce] [Dd]2 [EGce]- [EGce]2 [GBeg]2 | [FBdf] [Gg]2 [Bdfb]- [Bdfb]4 | %81
 [Gc=eg] [Bb]2 [dgbd']- [dgbd'][cc'] [Begb]2 | [cfac'] [Aa]2 [FAcf]- [FAcf] [Bdfb]2 [Gg] | %83
 [Begb]2 [cegc']2 [Begb]2 [cegc']2 | [dgbd'] [cc']2 [Begb]- [Begb]2 [GBeg]2 | %85
 [FBdf]2 [GBdg]2 [FBdf]2 [FBdf]2 | [=EGB=e] [Ff]2 [dfbd']- [dfbd']4 | %87
 [_d_gb_d']2 [cgbc']2 [Bdgb]2 [_GBdg]2 | [FBdf] [Gg]2 [df=bd']- [dfbd']4 | %89
 [c=egc'] [Gg]2 [Bb] [Acfa] [dd']2 [Bdfb]- |1 [Bdfb]2 [Bdfb]2 [Bdfb]2 [Bdfb]2 :|2 %91
 [Bdfb]4 [bd'f'b']4 |] %92
V:2
!ped! [F,,F,]2 [C,F,A,]4 [F,,F,]2!ped-up! |!ped! [_D,,_D,]2 [D,F,_A,]4 [D,,D,]2!ped-up! | %2
!ped! [B,,,B,,]2 [_D,F,_A,B,]4 [B,,,B,,]2!ped-up! | .[C,,C,]2 z2 z4 |: %4
 [F,,F,]2 .[C,F,A,]2 [E,,E,]2 .[C,E,A,]2 | [_E,,_E,]2 .[C,E,F,A,]2 [D,,D,]2 .[D,^F,A,]2 | %6
 [G,,G,]2 .[D,G,B,]2 [_G,,_G,]2 .[D,G,B,]2 | [F,,F,]2 .[D,G,B,]2 [E,,E,]2 .[E,G,B,]2 | %8
 [D,,D,]2 .[D,F,A,]2 [_D,,_D,]2 .[D,F,_A,]2 | [C,,C,]2 .[C,F,A,]2 [D,,D,]2 .[D,F,A,]2 | %10
 [G,,,G,,]2 .[=B,,D,F,G,]2 [G,,G,]2 .[B,,D,F,G,]2 | .[C,,C,]2 z2 z4 | %12
 [F,,F,]2 .[C,F,A,]2 [E,,E,]2 .[C,E,A,]2 | [_E,,_E,]2 .[C,E,F,A,]2 [D,,D,]2 .[D,^F,A,]2 | %14
 [G,,G,]2 .[D,G,B,]2 [_G,,_G,]2 .[D,G,B,]2 | [F,,F,]2 .[D,G,B,]2 [E,,E,]2 .[E,G,B,]2 | %16
 [D,,D,]2 .[D,F,A,]2 [_D,,_D,]2 .[D,F,_A,]2 | [C,,C,]2 .[C,F,A,]2 [=B,,,=B,,]4 | %18
 [C,,C,]2 .[C,E,B,]2 [C,,C,][D,,D,] .[E,,E,]2 |1 [F,,F,]4 [C,C]2 [C,,C,]2 :|2 .[F,,F,]2 z2 z4 |: %21
 [G,,E,]2 .[E,G,B,C]2 [C,,C,]2 .[E,G,B,C]2 | [G,,G,]2 .[E,G,B,C]2 [C,,C,]2 .[E,G,B,C]2 | %23
 [F,,F,]2 .[A,CF]2 [C,,C,]2 .[A,CF]2 | [F,,F,]2 .[A,CF]2 [F,,F,]2 .[F,A,C]2 | %25
 [A,,A,]2 .[A,CE]2 [E,,E,]2 .[A,CE]2 | [=B,,=B,]2 .[E,^G,B,D]2 [E,,E,]2 .[E,G,B,D]2 | %27
 [A,,A,]2 .[E,A,^C]2 [E,A,C]2 [A,,A,][^A,,^A,] | [=B,,=B,]2 [E,,E,]2 [A,,A,]2 [C,,C,]2 | %29
 [G,,G,]2 .[E,G,B,C]2 [C,,C,]2 .[E,G,B,C]2 | [G,,G,]2 .[E,G,B,C]2 [C,,C,]2 .[E,G,B,C]2 | %31
 [F,,F,]2 .[F,A,C_E]2 [G,,G,]2 [A,,A,]2 | [B,,B,]2 .[F,B,D]2 [F,,F,]2 .[F,B,D]2 | %33
 [G,,G,]2 .[D,G,B,]2 [^G,,^G,]2 .[G,=B,DF]2 | [A,,A,]2 .[A,CF]2 [D,,D,]2 .[^F,A,C]2 | %35
 [G,,G,]2 .[D,G,B,]2 [C,,C,]2 .[E,G,B,C]2 |1 .[F,,F,]2 z2 z2 [^F,,^D,]2 :|2 %37
 .[F,,F,]2 z2 [C,C]2 [C,,C,]2 || [F,,F,]2 .[F,A,C]2 [E,,E,]2 .[E,A,C]2 | %39
 [_E,,_E,]2 .[E,F,A,C]2 [D,,D,]2 .[^F,A,D]2 | [G,,G,]2 .[G,B,D]2 [_G,,_G,]2 .[G,B,D]2 | %41
 [F,,F,]2 .[G,B,D]2 [E,,E,]2 .[G,B,E]2 | [D,,D,]2 .[F,A,D]2 [_D,,_D,]2 .[F,_A,_D]2 | %43
 [C,,C,]2 [^C,,^C,]2 [D,,D,]2 .[F,A,D]2 | [G,,,G,,]2 .[G,=B,DF]2 [D,,D,]2 [G,,G,]2 | %45
 .[C,,C,]2 [F,F]2 [E,E]2 [D,D]2 | [F,,F,]2 .[F,A,C]2 [E,,E,]2 .[E,A,C]2 | %47
 [_E,,_E,]2 .[E,F,A,C]2 [D,,D,]2 .[^F,A,D]2 | [G,,G,]2 .[G,B,D]2 [_G,,_G,]2 .[G,B,D]2 | %49
 [F,,F,]2 .[G,B,D]2 [E,,E,]2 .[G,B,E]2 | [D,,D,]2 .[D,F,A,]2 [_D,,_D,]2 .[D,F,_A,]2 | %51
 [C,,C,]2 .[C,F,A,]2 [=B,,,=B,,]4 | [C,,C,]2 .[C,E,B,]2 [C,,C,][D,,D,] .[E,,E,]2 | %53
 [F,,F,]2 [C,,C,]2 [F,,,F,,]4 ||!ped! [F,,F,]2 [C,F,A,]4 [F,,F,]2!ped-up! | %55
!ped! [E,,E,]2 [_G,B,_D]4 [E,,E,]2!ped-up! | [F,,F,]2 [F,A,C]2 [G,B,_D]2 [^G,=B,=D]2 | %57
 [A,C_E]4 [F,,F,]2 (F,/E,/D,/_D,/ |:[K:Bb] .C,2) .[F,A,E]2 [C,,C,]2 .[F,A,E]2 | %59
 [F,,F,]2 .[F,A,E]2!8vb(! [F,,,F,,]2!8vb)! (B,/A,/G,/_G,/ | .F,2) .[F,B,D]2 [F,,F,]2 .[F,B,D]2 | %61
 [B,,B,]2 .[F,B,D]2 [D,,D,]2 .[F,B,D]2 | [F,,F,]2 .[F,A,E]2 [E,,E,]2 .[F,A,E]2 | %63
 [D,,D,]2 .[F,A,D]2 [C,,C,]2 [F,,F,]2 | [B,,,B,,]2 .[D,F,B,]2 [F,,F,]2 .[D,F,B,]2 | %65
 [B,,B,]2 .[D,F,B,]2 [F,,F,]2 (F,/=E,/D,/_D,/ | .C,2) .[F,A,E]2 [C,,C,]2 .[F,A,E]2 | %67
 [F,,F,]2 .[F,A,E]2!8vb(! [F,,,F,,]2!8vb)! (B,/A,/G,/_G,/ | .F,2) .[F,B,D]2 [F,,F,]2 .[F,B,D]2 | %69
 [D,,D,]2 .[F,B,D]2 [B,,,B,,]2 [C,,C,][D,,D,] | [E,,E,]2 .[G,B,E]2 [E,,E,]2 [F,,F,]2 | %71
 [_G,,_G,]2 .[G,B,_D]2 [G,B,D]2 [G,,G,]2 | [F,,F,]2 .[F,B,D]2 [_G,,_G,]2 [F,,F,]2 |1 %73
 [B,,B,]2 [F,,F,]2 [B,,,B,,]2 (F,/=E,/D,/_D,/) :|2 [B,,B,]2 [B,,,B,,]2 [C,,C,]2 [D,,D,]2 |: %75
{/E,,-} [E,,G,]2 .[G,B,E]2 [B,,,B,,]2 .[G,B,E]2 | [E,,E,]2 .[G,B,E]2 [G,,G,]2 [A,,A,]2 | %77
 [B,,B,]2 .[F,B,D]2 [A,,A,]2 [_A,,_A,]2 | [G,,G,]2 .[D,F,G,=B,]2 [G,,G,]2 .[D,F,G,B,]2 | %79
 [C,,C,]2 .[E,G,C]2 [C,,C,]2 [^C,,^C,]2 | [D,,D,]2 .[D,F,B,]2 [G,,G,]2 .[G,B,D]2 | %81
{/C,,-} [C,,=E,]2 .[E,G,B,C]2 [C,,C,]2 .[E,G,B,C]2 | [F,,F,]2 .[F,A,E]2 [F,A,E]2 [B,,,B,,]2 | %83
!8vb(! [E,,,E,,]2!8vb)! .[G,B,E]2 [B,,,B,,]2 .[G,B,E]2 | [E,,E,]2 .[G,B,E]2 [G,,G,]2 [A,,A,]2 | %85
 [B,,B,]2 .[F,B,D]2 [F,,F,]2 .[F,B,D]2 | [B,,B,]2 .[F,B,D]2 [D,,D,]2 .[F,B,D]2 | %87
{/_G,,-} [G,,_B,]2 .[_G,B,_D]2 [G,,G,]2 .[G,B,D]2 | [F,,F,]2 .[F,B,D]2 [G,,G,]2 .[G,=B,F]2 | %89
 [C,,C,]2 .[=E,G,B,C]2 [F,,F,]2 .[F,A,E]2 |1 %90
 [B,,B,]2 [A,,,A,,][B,,,B,,] [=B,,,=B,,][C,,C,][^C,,^C,][D,,D,] :|2 [B,,B,]2 [F,,F,]2 [B,,,B,,]4 |] %92
V:3
 x8 | x8 | x8 | x8 |: x8 | x8 | x8 | x8 | x8 | x8 | x8 | x2 F2 E2 D2 | x8 | x8 | x8 | x8 | x8 | %17
 x8 | x8 |1 x8 :|2 x8 |: [GB]4 [GB]4 | [GB]3 x5 | [Ac]4 x4 | x8 | x8 | x8 | x8 | x8 | [GB]4 [GB]4 | %30
 [GB]3 x5 | x8 | x8 | x8 | x8 | x8 |1 x8 :|2 x8 || x8 | x8 | x8 | x8 | x8 | x8 | x8 | x8 | x8 | %47
 x8 | x8 | x8 | x8 | x8 | x8 | x8 || x8 | x8 | x8 | x8 |:[K:Bb] x8 | x8 | x8 | x8 | x8 | x8 | %64
 x5!8va(! x3 | x8!8va)! | x8 | x8 | x8 | x8 | x8 | x8 | x8 |1 x8 :|2 x8 |: x8 | x8 | x8 | x8 | x8 | %80
 x8 | x8 | x8 | x8 | x8 | x8 | x8 | x8 | x8 | x8 |1 x8 :|2 x8 |] %92

